images/people/people-13.svg

<?xml version="1.0" standalone="no"?><!DOCTYPE svg PUBLIC "-//W3C//DTD SVG 1.1//EN" "http://www.w3.org/Graphics/SVG/1.1/DTD/svg11.dtd"><svg width="120px" height="192px" version="1.1" xmlns="http://www.w3.org/2000/svg" xmlns:xlink="http://www.w3.org/1999/xlink" xml:space="preserve" style="fill-rule:evenodd;clip-rule:evenodd;stroke-linejoin:round;stroke-miterlimit:1.41421;"><g><g id="people-13" transform="matrix(1,0,0,1,-1999,-48)"><g transform="matrix(1,0,0,1,0,-12)"><path d="M2066.48,231.02l0.943,6.871l-6.697,-0.172l-0.516,-7.384l6.27,0.685Z" style="fill:#ceab97;fill-rule:nonzero;"/></g><g transform="matrix(1,0,0,1,0,-12)"><path d="M2069.46,104.669l-4.381,-4.424l-9.435,-0.913l-0.022,0.086l-5.398,2.699l-2.016,2.508l-0.082,26.893l5.056,-0.645l0.641,-1.182l3.467,-1.412l6.194,0.897l3.349,1.827l4.277,-0.258l-1.65,-26.076Z" style="fill:#f5f3e9;fill-rule:nonzero;"/></g><g transform="matrix(1,0,0,1,0,-12)"><path d="M2054.25,249.311l0.773,2.189l5.28,0l1.353,-9.981l-6.029,-1.266l-1.377,9.058Z" style="fill:#ceab97;fill-rule:nonzero;"/></g><g transform="matrix(1,0,0,1,0,-12)"><path d="M2052.32,125.405l2.834,-1.889l2.061,-5.839l4.757,1.357l1.51,3.709l3.262,1.632l0.869,18.297l-7.972,13.165l-7.321,-30.432Z" style="fill:#ceab97;fill-rule:nonzero;"/></g><g transform="matrix(1,0,0,1,0,-12)"><path d="M2057.11,121.839l4.286,0l4.616,-5.935l-0.824,-10.944l-8.234,-1.375l-5.116,2.034l0.164,10.285l5.108,5.935Z" style="fill:#e1c5b5;fill-rule:nonzero;"/></g><g transform="matrix(1,0,0,1,0,-12)"><path d="M2063.5,108.456l2.822,0.047l0.223,4.916l-2.879,-0.15l-0.166,-4.813Z" style="fill:#e1c5b5;fill-rule:nonzero;"/></g><g transform="matrix(1,0,0,1,0,-12)"><path d="M2053.96,109.125l-2.848,0.775l0.224,4.122l2.518,0.098l0.106,-4.995Z" style="fill:#e1c5b5;fill-rule:nonzero;"/></g><g transform="matrix(1,0,0,1,0,-12)"><path d="M2071.15,163.531l-4.661,67.489l-5.41,0l-1.201,-57.358l2.794,26.46l-1.078,41.46l-5.923,-1.288l-3.094,-39.927l-4.033,-36.322l22.606,-0.514Z" style="fill:#5c5e5f;fill-rule:nonzero;"/></g><g transform="matrix(1,0,0,1,0,-12)"><path d="M2060.42,173.562l2.72,28.607l-1.282,28.86l5.317,-10.071l2.576,-38.19l-9.331,-9.206Z" style="fill:#171817;fill-opacity:0.25;fill-rule:nonzero;"/></g><g transform="matrix(1,0,0,1,0,-12)"><path d="M2041.23,159.49l-2.349,5.768l0.451,7.992l2.654,-1.018l0.541,-6.748l-0.22,2.034l2.4,0.107l-0.872,-5.549l-2.605,-2.586Z" style="fill:#ceab97;fill-rule:nonzero;"/></g><g transform="matrix(1,0,0,1,0,-12)"><path d="M2077.34,159.768l1.776,4.479l-0.157,7.378l-2.899,-0.381l-0.588,-6.746l0.232,2.033l-2.494,0.344l0.837,-5.593l3.293,-1.514Z" style="fill:#ceab97;fill-rule:nonzero;"/></g><g transform="matrix(1,0,0,1,0,-12)"><path d="M2066.87,124.246l6.225,2.705l4.459,33.659l-3.606,0.601l-4.115,-29.624l1.373,31.942l-22.668,0.516l1.889,-29.709l-6.526,27.819l-3.306,-1.459l5.88,-31.856l5.84,-3.565l2.546,8.6l10.825,-0.098l1.184,-9.531Z" style="fill:#2a2b2a;fill-rule:nonzero;"/></g></g></g></svg>

<?xml version="1.0" encoding="UTF-8" standalone="no"?>
<!DOCTYPE svg PUBLIC "-//W3C//DTD SVG 1.1//EN" "http://www.w3.org/Graphics/SVG/1.1/DTD/svg11.dtd">
<svg width="100%" height="100%" viewBox="0 0 140 220" version="1.1" xmlns="http://www.w3.org/2000/svg" xmlns:xlink="http://www.w3.org/1999/xlink" xml:space="preserve" xmlns:serif="http://www.serif.com/" style="fill-rule:evenodd;clip-rule:evenodd;stroke-linejoin:round;stroke-miterlimit:2;">
    <g id="people-13" transform="matrix(1.27,0,0,1.27,-2544.93,-84.8)">
        <g transform="matrix(1,0,0,1,0,-12)">
            <path d="M2066.48,231.021L2067.43,237.892L2060.73,237.72L2060.21,230.336L2066.48,231.021Z" style="fill:rgb(206,171,151);fill-rule:nonzero;"/>
        </g>
        <g transform="matrix(1,0,0,1,0,-12)">
            <path d="M2069.46,104.669L2065.08,100.245L2055.64,99.332L2055.62,99.418L2050.22,102.117L2048.21,104.625L2048.12,131.518L2053.18,130.873L2053.82,129.691L2057.29,128.279L2063.48,129.176L2066.83,131.003L2071.11,130.745L2069.46,104.669Z" style="fill:rgb(245,243,233);fill-rule:nonzero;"/>
        </g>
        <g transform="matrix(1,0,0,1,0,-12)">
            <path d="M2054.25,249.311L2055.02,251.5L2060.3,251.5L2061.65,241.519L2055.62,240.253L2054.25,249.311Z" style="fill:rgb(206,171,151);fill-rule:nonzero;"/>
        </g>
        <g transform="matrix(1,0,0,1,0,-12)">
            <path d="M2052.32,125.405L2055.15,123.516L2057.21,117.677L2061.97,119.034L2063.48,122.743L2066.74,124.375L2067.61,142.672L2059.64,155.837L2052.32,125.405Z" style="fill:rgb(206,171,151);fill-rule:nonzero;"/>
        </g>
        <g transform="matrix(1,0,0,1,0,-12)">
            <path d="M2057.11,121.839L2061.39,121.839L2066.01,115.904L2065.19,104.96L2056.95,103.585L2051.84,105.619L2052,115.904L2057.11,121.839Z" style="fill:rgb(225,197,181);fill-rule:nonzero;"/>
        </g>
        <g transform="matrix(1,0,0,1,0,-12)">
            <path d="M2063.5,108.456L2066.32,108.503L2066.54,113.419L2063.66,113.269L2063.5,108.456Z" style="fill:rgb(225,197,181);fill-rule:nonzero;"/>
        </g>
        <g transform="matrix(1,0,0,1,0,-12)">
            <path d="M2053.96,109.125L2051.11,109.9L2051.33,114.022L2053.85,114.12L2053.96,109.125Z" style="fill:rgb(225,197,181);fill-rule:nonzero;"/>
        </g>
        <g transform="matrix(1,0,0,1,0,-12)">
            <path d="M2071.15,163.531L2066.49,231.02L2061.07,231.02L2059.87,173.662L2062.67,200.122L2061.59,241.582L2055.67,240.294L2052.57,200.367L2048.54,164.045L2071.15,163.531Z" style="fill:rgb(92,94,95);fill-rule:nonzero;"/>
        </g>
        <g transform="matrix(1,0,0,1,0,-12)">
            <path d="M2060.42,173.563L2063.14,202.17L2061.86,231.029L2067.17,220.959L2069.75,182.768L2060.42,173.563Z" style="fill:rgb(23,24,23);fill-opacity:0.25;fill-rule:nonzero;"/>
        </g>
        <g transform="matrix(1,0,0,1,0,-12)">
            <path d="M2041.23,159.49L2038.88,165.258L2039.33,173.25L2041.99,172.232L2042.53,165.484L2042.31,167.518L2044.71,167.625L2043.84,162.076L2041.23,159.49Z" style="fill:rgb(206,171,151);fill-rule:nonzero;"/>
        </g>
        <g transform="matrix(1,0,0,1,0,-12)">
            <path d="M2077.34,159.768L2079.11,164.247L2078.96,171.625L2076.06,171.244L2075.47,164.498L2075.7,166.531L2073.21,166.875L2074.05,161.282L2077.34,159.768Z" style="fill:rgb(206,171,151);fill-rule:nonzero;"/>
        </g>
        <g transform="matrix(1,0,0,1,0,-12)">
            <path d="M2066.87,124.246L2073.1,126.951L2077.55,160.61L2073.95,161.211L2069.83,131.587L2071.21,163.529L2048.54,164.045L2050.43,134.336L2043.9,162.155L2040.6,160.696L2046.48,128.84L2052.32,125.275L2054.86,133.875L2065.69,133.777L2066.87,124.246Z" style="fill:rgb(42,43,42);fill-rule:nonzero;"/>
        </g>
    </g>
</svg>
